static/images/private/private.svg

<?xml version="1.0" encoding="UTF-8"?>
<svg width="117px" height="92px" viewBox="0 0 117 92" version="1.1" xmlns="http://www.w3.org/2000/svg" xlinkHref="http://www.w3.org/1999/xlink">
    <g id="NUX" stroke="none" stroke-width="1" fill="none" fill-rule="evenodd">
        <g id="Private-Sites" transform="translate(-545.000000, -1377.000000)">
            <g id="Logged-in" transform="translate(53.000000, 1158.000000)">
                <g id="step-1---desktop" transform="translate(0.000000, 36.000000)">
                    <g id="Page-1" transform="translate(492.000000, 183.000000)">
                        <path d="M4.9276,16.4294 L4.9276,10.8194 L4.9276,7.0844 C4.9276,3.8234 7.5706,1.1804 10.8316,1.1804 L98.1796,1.1804 C101.4406,1.1804 104.0836,3.8234 104.0836,7.0844 L104.0836,16.4294 L4.9276,16.4294 Z" id="Fill-1" fill="#46799A"></path>
                        <path d="M104.0834,85.1271 L104.0834,70.5601 C104.0834,78.6051 97.5624,85.1271 89.5174,85.1271 L4.9274,85.1271" id="Fill-3" fill="#CCCED0"></path>
                        <mask id="mask-2" fill="white">
                            <polygon id="path-1" points="0 91.0185 116.28 91.0185 116.28 0.0005 0 0.0005"></polygon>
                        </mask>
                        <g id="Clip-6"></g>
                        <polygon id="Fill-5" fill="#E1E2E2" mask="url(#mask-2)" points="4.927 52.1365 104.083 52.1365 104.083 16.4285 4.927 16.4285"></polygon>
                        <polygon id="Fill-7" fill="#CCCED0" mask="url(#mask-2)" points="16.533 85.1275 46.719 85.1275 46.719 61.5305 16.533 61.5305"></polygon>
                        <path d="M77.1664,38.6891 L16.5334,38.6891 L16.5334,31.8791 L70.9824,31.8791 C74.3974,31.8791 77.1664,34.6471 77.1664,38.0631 L77.1664,38.6891 Z" id="Fill-8" fill="#FFFFFF" mask="url(#mask-2)"></path>
                        <polygon id="Fill-9" fill="#CCCED0" mask="url(#mask-2)" points="55.863 85.1275 92.713 85.1275 92.713 61.5305 55.863 61.5305"></polygon>
                        <path d="M14.2142,84.8771 C21.7032,84.8081 29.1922,84.8221 36.6812,84.6491 L59.1492,84.2521 C66.6382,84.1861 74.1272,84.1021 81.6162,84.1141 L104.0832,84.0811 L103.0372,85.1271 L102.9402,19.6321 L102.9272,11.4461 L102.9222,7.3531 C102.9202,6.6991 102.8712,6.2231 102.7062,5.6771 C102.5392,5.1561 102.2832,4.6651 101.9512,4.2301 C101.2882,3.3611 100.3222,2.7121 99.2542,2.4821 C98.7092,2.3581 98.2262,2.3511 97.4862,2.3571 L95.4392,2.3601 L87.2532,2.3501 L54.5062,2.3011 L21.7582,2.2521 L13.5712,2.2401 L11.5252,2.2371 C10.7902,2.2301 10.2862,2.2371 9.7292,2.3651 C8.6332,2.6021 7.6442,3.2661 6.9642,4.1571 C6.2692,5.0671 5.9352,6.1311 5.9692,7.3531 L5.9642,11.4451 L5.9692,19.6311 L5.9742,36.0051 L5.8502,52.3781 L5.5832,68.7521 C5.4912,74.2101 5.4012,79.6681 5.4002,85.1261 L5.0872,84.8141 L14.2142,84.8771 Z M14.2142,85.3771 L5.0872,85.4391 L4.7762,85.4411 L4.7752,85.1271 C4.7492,79.6691 4.6362,74.2121 4.5212,68.7541 L4.1832,52.3811 L3.9892,36.0081 L3.9232,19.6341 L3.8932,11.4471 L3.8862,7.3531 C3.8792,6.6461 3.9532,5.7721 4.1942,5.0221 C4.4362,4.2551 4.8102,3.5311 5.2952,2.8911 C6.2602,1.6141 7.6762,0.6641 9.2522,0.3131 C10.0252,0.1221 10.8972,0.1171 11.5252,0.1241 L13.5712,0.1201 L21.7582,0.1081 L54.5062,0.0591 L87.2532,0.0101 L95.4392,0.0001 L97.4862,0.0031 C98.1082,-0.0039 99.0002,0.0021 99.7862,0.1951 C101.3892,0.5531 102.8292,1.5191 103.8122,2.8181 C104.3052,3.4691 104.6862,4.2061 104.9312,4.9861 C105.1762,5.7471 105.2532,6.6431 105.2452,7.3531 L105.2392,11.4461 L105.2272,19.6321 L105.1302,85.1271 L105.1282,86.1741 L104.0832,86.1731 L81.6162,86.1391 C74.1272,86.1511 66.6382,86.0681 59.1492,86.0011 L36.6812,85.6041 C29.1922,85.4311 21.7032,85.4461 14.2142,85.3771 L14.2142,85.3771 Z" id="Fill-10" fill="#46799A" mask="url(#mask-2)"></path>
                        <path d="M109.0111,16.4294 L0.0001,16.4294" id="Fill-11" fill="#DDF8FF" mask="url(#mask-2)"></path>
                        <path d="M109.0111,16.6794 C99.9271,17.4874 90.8431,17.4284 81.7581,17.4754 L54.5061,17.6104 L27.2531,17.4754 C18.1681,17.4284 9.0841,17.4894 0.0001,16.6794 L0.0001,16.1794 C9.0841,15.3694 18.1681,15.4304 27.2531,15.3834 L54.5061,15.2484 L81.7581,15.3834 C90.8431,15.4304 99.9271,15.3714 109.0111,16.1794 L109.0111,16.6794 Z" id="Fill-12" fill="#204A69" mask="url(#mask-2)"></path>
                        <path d="M111.8915,90.1681 L84.8795,90.1681 C82.9465,90.1681 81.3795,88.6011 81.3795,86.6681 L81.3795,65.7901 C81.3795,63.8561 82.9465,62.2901 84.8795,62.2901 L111.8915,62.2901 C113.8245,62.2901 115.3915,63.8561 115.3915,65.7901 L115.3915,86.6681 C115.3915,88.6011 113.8245,90.1681 111.8915,90.1681" id="Fill-13" fill="#FFFFFF" mask="url(#mask-2)"></path>
                        <path d="M111.8915,89.4548 C112.8705,89.4508 113.8265,88.9018 114.2965,88.0418 C114.5395,87.6178 114.6545,87.1398 114.6565,86.6438 L114.6495,84.8038 L114.6185,77.4438 L114.5455,70.0828 L114.5095,66.4028 C114.5085,65.7238 114.5075,65.3378 114.3295,64.8978 C114.1745,64.4698 113.8895,64.0968 113.5425,63.8068 C113.1855,63.5288 112.7675,63.3258 112.3215,63.2668 C111.9495,63.2058 111.2285,63.2488 110.6405,63.2448 L106.9605,63.2818 L99.5995,63.3238 L84.8795,63.3428 C84.0195,63.3398 83.1705,63.8118 82.7455,64.5718 C82.5265,64.9478 82.4215,65.3658 82.4145,65.8138 L82.4085,67.6538 L82.3705,75.0148 L82.3095,82.3748 L82.2795,86.0548 C82.2685,86.7348 82.2575,87.1188 82.4265,87.5658 C82.5725,87.9998 82.8505,88.3848 83.1975,88.6898 C83.5535,88.9808 83.9765,89.2008 84.4355,89.2728 C84.8275,89.3468 85.5395,89.3138 86.1305,89.3298 L89.8105,89.3598 L97.1705,89.4078 L111.8915,89.4548 Z M111.8915,90.8818 L97.1705,90.9288 L89.8105,90.9768 L86.1305,91.0078 C85.4955,90.9928 84.9745,91.0668 84.1505,90.9578 C83.3935,90.8458 82.6785,90.5038 82.0835,90.0258 C81.4985,89.5348 81.0275,88.8978 80.7645,88.1728 C80.4685,87.4678 80.4755,86.5948 80.4795,86.0548 L80.4495,82.3748 L80.3885,75.0148 L80.3505,67.6538 L80.3445,65.8138 C80.3435,65.0378 80.5405,64.2248 80.9385,63.5378 C81.7105,62.1388 83.2805,61.2348 84.8795,61.2378 L99.5995,61.2558 L106.9605,61.2988 L110.6405,61.3348 C111.2765,61.3608 111.7905,61.2968 112.6335,61.4188 C113.4035,61.5448 114.1245,61.9038 114.7185,62.3948 C115.3035,62.8998 115.7675,63.5478 116.0205,64.2798 C116.3075,64.9918 116.2885,65.8628 116.2725,66.4028 L116.2365,70.0828 L116.1635,77.4438 L116.1335,84.8038 L116.1255,86.6438 C116.1215,87.3728 115.9335,88.1268 115.5595,88.7648 C114.8335,90.0648 113.3705,90.8918 111.8915,90.8818 L111.8915,90.8818 Z" id="Fill-14" fill="#969CA1" mask="url(#mask-2)"></path>
                        <path d="M102.8642,81.988 L100.6082,77.244 C100.3872,76.781 100.4712,76.227 100.8302,75.86 C101.5802,75.091 101.9712,73.973 101.7212,72.766 C101.4542,71.474 100.4142,70.427 99.1222,70.156 C96.9162,69.695 94.9732,71.366 94.9732,73.491 C94.9732,74.411 95.3412,75.241 95.9342,75.853 C96.2942,76.223 96.3852,76.778 96.1622,77.244 L93.9062,81.988 C93.8202,82.17 93.9522,82.379 94.1532,82.379 L102.6172,82.379 C102.8182,82.379 102.9502,82.17 102.8642,81.988" id="Fill-15" fill="#969CA1" mask="url(#mask-2)"></path>
                        <path d="M107.6059,62.2902 L103.1269,62.2902 L103.1269,55.8722 C103.1269,53.6352 101.3069,51.8162 99.0709,51.8162 L97.6999,51.8162 C95.4629,51.8162 93.6429,53.6352 93.6429,55.8722 L93.6429,62.2902 L89.1649,62.2902 L88.4779,62.2902 L88.4779,55.3942 C88.4779,50.3282 92.5839,46.2222 97.6489,46.2222 L99.1219,46.2222 C104.1869,46.2222 108.2929,50.3282 108.2929,55.3942 L108.2929,62.2902" id="Fill-16" fill="#FFFFFF" mask="url(#mask-2)"></path>
                        <path d="M107.6059,62.9538 L103.1269,63.0198 C102.7299,63.0258 102.4029,62.7088 102.3979,62.3108 L102.3969,62.2898 L102.2839,55.6188 C102.2119,54.7288 101.7439,53.8848 101.0319,53.3518 C100.6789,53.0828 100.2729,52.8898 99.8459,52.7868 C99.6329,52.7328 99.4139,52.7058 99.1929,52.7018 C98.9799,52.6888 98.6509,52.7018 98.3849,52.7008 C98.1199,52.7068 97.7899,52.6988 97.5779,52.7148 C97.3579,52.7248 97.1409,52.7558 96.9309,52.8148 C96.5099,52.9248 96.1129,53.1248 95.7729,53.3958 C95.0839,53.9348 94.6479,54.7668 94.5969,55.6278 L94.6049,62.2898 C94.6049,62.8208 94.1729,63.2508 93.6429,63.2508 L88.4779,63.2658 C87.9399,63.2668 87.5029,62.8328 87.5019,62.2948 L87.5019,62.2898 L87.4869,56.7808 L87.4829,55.4038 C87.5109,54.8988 87.5079,54.3868 87.6069,53.8868 C87.7479,52.8788 88.0589,51.8938 88.5099,50.9838 C89.3859,49.1468 90.8519,47.6118 92.6099,46.6048 C93.4959,46.1138 94.4439,45.7208 95.4399,45.5138 C96.4059,45.3008 97.5139,45.2498 98.3859,45.2748 C99.2579,45.2538 100.3649,45.3168 101.3249,45.5418 C102.3149,45.7598 103.2539,46.1628 104.1279,46.6608 C105.8639,47.6828 107.2949,49.2218 108.1359,51.0448 C108.5719,51.9468 108.8659,52.9208 108.9819,53.9128 C109.0709,54.4068 109.0569,54.9088 109.0789,55.4038 L109.0549,56.7808 L108.9569,62.2898 C108.9509,62.6568 108.6479,62.9488 108.2819,62.9418 C107.9229,62.9358 107.6359,62.6448 107.6289,62.2898 L107.5319,56.7808 L107.5079,55.4038 C107.4699,54.9838 107.4729,54.5628 107.3799,54.1518 C107.2509,53.3258 106.9889,52.5228 106.6129,51.7808 C105.8869,50.2808 104.6709,49.0328 103.2309,48.2238 C102.5039,47.8318 101.7319,47.5138 100.9209,47.3538 C100.0859,47.1918 99.3489,47.1508 98.3859,47.1698 C97.4219,47.1548 96.6859,47.2078 95.8559,47.3818 C95.0499,47.5528 94.2879,47.8808 93.5729,48.2798 C92.1559,49.1038 90.9749,50.3548 90.2819,51.8408 C89.9219,52.5758 89.6769,53.3678 89.5719,54.1798 C89.4909,54.5818 89.5039,54.9938 89.4719,55.4038 L89.4679,56.7808 L89.4529,62.2898 L88.4779,61.3148 L93.6429,61.3288 L92.6819,62.2898 L92.6909,58.9218 L92.6959,57.2378 L92.6979,56.3958 C92.6989,56.1158 92.6929,55.8528 92.7209,55.4808 C92.8279,54.0978 93.5529,52.7848 94.6489,51.9558 C95.1929,51.5378 95.8259,51.2328 96.4929,51.0708 C96.8249,50.9858 97.1679,50.9408 97.5089,50.9328 C97.8579,50.9178 98.0889,50.9328 98.3849,50.9308 C98.6809,50.9368 98.9129,50.9268 99.2599,50.9468 C99.6009,50.9598 99.9409,51.0088 100.2709,51.0978 C100.9319,51.2678 101.5539,51.5788 102.0869,51.9998 C103.1589,52.8348 103.8519,54.1368 103.9369,55.4898 C103.9579,55.8508 103.9469,56.1158 103.9429,56.3958 L103.9309,57.2378 L103.9059,58.9218 L103.8559,62.2898 L103.1269,61.5598 L107.6059,61.6258 C107.9729,61.6318 108.2659,61.9328 108.2599,62.2998 C108.2549,62.6598 107.9629,62.9488 107.6059,62.9538" id="Fill-17" fill="#969CA1" mask="url(#mask-2)"></path>
                    </g>
                </g>
            </g>
        </g>
    </g>
</svg>

<svg height="92" viewBox="0 0 117 92" width="117" xmlns="http://www.w3.org/2000/svg" xmlns:xlink="http://www.w3.org/1999/xlink"><mask id="a" fill="#fff"><path d="m0 91.0185h116.28v-91.018h-116.28z" fill="#fff" fill-rule="evenodd"/></mask><g fill="none" fill-rule="evenodd"><path d="m4.9276 16.4294v-5.61-3.735c0-3.261 2.643-5.904 5.904-5.904h87.348c3.261 0 5.904 2.643 5.904 5.904v9.345z" fill="#46799a"/><path d="m104.0834 85.1271v-14.567c0 8.045-6.521 14.567-14.566 14.567h-84.59" fill="#ccced0"/><path d="m4.927 52.1365h99.156v-35.708h-99.156z" fill="#e1e2e2" mask="url(#a)"/><path d="m16.533 85.1275h30.186v-23.597h-30.186z" fill="#ccced0" mask="url(#a)"/><path d="m77.1664 38.6891h-60.633v-6.81h54.449c3.415 0 6.184 2.768 6.184 6.184z" fill="#fff" mask="url(#a)"/><path d="m55.863 85.1275h36.85v-23.597h-36.85z" fill="#ccced0" mask="url(#a)"/><path d="m14.2142 84.8771c7.489-.069 14.978-.055 22.467-.228l22.468-.397c7.489-.066 14.978-.15 22.467-.138l22.467-.033-1.046 1.046-.097-65.495-.013-8.186-.005-4.093c-.002-.654-.051-1.13-.216-1.676-.167-.521-.423-1.012-.755-1.447-.663-.869-1.629-1.518-2.697-1.748-.545-.124-1.028-.131-1.768-.125l-2.047.003-8.186-.01-32.747-.049-32.748-.049-8.187-.012-2.046-.003c-.735-.007-1.239 0-1.796.128-1.096.237-2.085.901-2.765 1.792-.695.91-1.029 1.974-.995 3.196l-.005 4.092.005 8.186.005 16.374-.124 16.373-.267 16.374c-.092 5.458-.182 10.916-.183 16.374l-.313-.312zm0 .5-9.127.062-.311.002-.001-.314c-.026-5.458-.139-10.915-.254-16.373l-.338-16.373-.194-16.373-.066-16.374-.03-8.187-.007-4.094c-.007-.707.067-1.581.308-2.331.242-.767.616-1.491 1.101-2.131.965-1.277 2.381-2.227 3.957-2.578.773-.191 1.645-.196 2.273-.189l2.046-.004 8.187-.012 32.748-.049 32.747-.049 8.186-.01 2.047.003c.622-.007 1.514-.001 2.3.192 1.603.358 3.043 1.324 4.026 2.623.493.651.874 1.388 1.119 2.168.245.761.322 1.657.314 2.367l-.006 4.093-.012 8.186-.097 65.495-.002 1.047-1.045-.001-22.467-.034c-7.489.012-14.978-.071-22.467-.138l-22.468-.397c-7.489-.173-14.978-.158-22.467-.227z" fill="#46799a" mask="url(#a)"/><path d="m109.0111 16.4294h-109.011" fill="#ddf8ff" mask="url(#a)"/><path d="m109.0111 16.6794c-9.084.808-18.168.749-27.253.796l-27.252.135-27.253-.135c-9.085-.047-18.169.014-27.253-.796v-.5c9.084-.81 18.168-.749 27.253-.796l27.253-.135 27.252.135c9.085.047 18.169-.012 27.253.796z" fill="#204a69" mask="url(#a)"/><path d="m111.8915 90.1681h-27.012c-1.933 0-3.5-1.567-3.5-3.5v-20.878c0-1.934 1.567-3.5 3.5-3.5h27.012c1.933 0 3.5 1.566 3.5 3.5v20.878c0 1.933-1.567 3.5-3.5 3.5" fill="#fff" mask="url(#a)"/><path d="m111.8915 89.4548c.979-.004 1.935-.553 2.405-1.413.243-.424.358-.902.36-1.398l-.007-1.84-.031-7.36-.073-7.361-.036-3.68c-.001-.679-.002-1.065-.18-1.505-.155-.428-.44-.801-.787-1.091-.357-.278-.775-.481-1.221-.54-.372-.061-1.093-.018-1.681-.022l-3.68.037-7.361.042-14.72.019c-.86-.003-1.709.469-2.134 1.229-.219.376-.324.794-.331 1.242l-.006 1.84-.038 7.361-.061 7.36-.03 3.68c-.011.68-.022 1.064.147 1.511.146.434.424.819.771 1.124.356.291.779.511 1.238.583.392.074 1.104.041 1.695.057l3.68.03 7.36.048zm0 1.427-14.721.047-7.36.048-3.68.031c-.635-.015-1.156.059-1.98-.05-.757-.112-1.472-.454-2.067-.932-.585-.491-1.056-1.128-1.319-1.853-.296-.705-.289-1.578-.285-2.118l-.03-3.68-.061-7.36-.038-7.361-.006-1.84c-.001-.776.196-1.589.594-2.276.772-1.399 2.342-2.303 3.941-2.3l14.72.018 7.361.043 3.68.036c.636.026 1.15-.038 1.993.084.77.126 1.491.485 2.085.976.585.505 1.049 1.153 1.302 1.885.287.712.268 1.583.252 2.123l-.036 3.68-.073 7.361-.03 7.36-.008 1.84c-.004.729-.192 1.483-.566 2.121-.726 1.3-2.189 2.127-3.668 2.117z" fill="#969ca1" mask="url(#a)"/><path d="m102.8642 81.988-2.256-4.744c-.221-.463-.137-1.017.222-1.384.75-.769 1.141-1.887.891-3.094-.267-1.292-1.307-2.339-2.599-2.61-2.206-.461-4.149 1.21-4.149 3.335 0 .92.368 1.75.961 2.362.36.37.451.925.228 1.391l-2.256 4.744c-.086.182.046.391.247.391h8.464c.201 0 .333-.209.247-.391" fill="#969ca1" mask="url(#a)"/><path d="m107.6059 62.2902h-4.479v-6.418c0-2.237-1.82-4.056-4.056-4.056h-1.371c-2.237 0-4.057 1.819-4.057 4.056v6.418h-4.478-.687v-6.896c0-5.066 4.106-9.172 9.171-9.172h1.473c5.065 0 9.171 4.106 9.171 9.172v6.896" fill="#fff" mask="url(#a)"/><path d="m107.6059 62.9538-4.479.066c-.397.006-.724-.311-.729-.709l-.001-.021-.113-6.671c-.072-.89-.54-1.734-1.252-2.267-.353-.269-.759-.462-1.186-.565-.213-.054-.432-.081-.653-.085-.213-.013-.542 0-.808-.001-.265.006-.595-.002-.807.014-.22.01-.437.041-.647.1-.421.11-.818.31-1.158.581-.689.539-1.125 1.371-1.176 2.232l.008 6.662c0 .531-.432.961-.962.961l-5.165.015c-.538.001-.975-.433-.976-.971v-.005l-.015-5.509-.004-1.377c.028-.505.025-1.017.124-1.517.141-1.008.452-1.993.903-2.903.876-1.837 2.342-3.372 4.1-4.379.886-.491 1.834-.884 2.83-1.091.966-.213 2.074-.264 2.946-.239.872-.021 1.979.042 2.939.267.99.218 1.929.621 2.803 1.119 1.736 1.022 3.167 2.561 4.008 4.384.436.902.73 1.876.846 2.868.089.494.075.996.097 1.491l-.024 1.377-.098 5.509c-.006.367-.309.659-.675.652-.359-.006-.646-.297-.653-.652l-.097-5.509-.024-1.377c-.038-.42-.035-.841-.128-1.252-.129-.826-.391-1.629-.767-2.371-.726-1.5-1.942-2.748-3.382-3.557-.727-.392-1.499-.71-2.31-.87-.835-.162-1.572-.203-2.535-.184-.964-.015-1.7.038-2.53.212-.806.171-1.568.499-2.283.898-1.417.824-2.598 2.075-3.291 3.561-.36.735-.605 1.527-.71 2.339-.081.402-.068.814-.1 1.224l-.004 1.377-.015 5.509-.975-.975 5.165.014-.961.961.009-3.368.005-1.684.002-.842c.001-.28-.005-.543.023-.915.107-1.383.832-2.696 1.928-3.525.544-.418 1.177-.723 1.844-.885.332-.085.675-.13 1.016-.138.349-.015.58 0 .876-.002.296.006.528-.004.875.016.341.013.681.062 1.011.151.661.17 1.283.481 1.816.902 1.072.835 1.765 2.137 1.85 3.49.021.361.01.626.006.906l-.012.842-.025 1.684-.05 3.368-.729-.73 4.479.066c.367.006.66.307.654.674-.005.36-.297.649-.654.654" fill="#969ca1" mask="url(#a)"/></g></svg>
